assets/icons/24px/outline/music-24px.svg

<svg width="24" height="24" viewBox="0 0 24 24" fill="none" xmlns="http://www.w3.org/2000/svg">
<path d="M20 17.5C20 18.458 19.1831 19.904 17.5063 20.3563C15.8296 20.8085 14.2275 20.263 13.928 19.1377C13.6285 18.0125 14.7449 16.7337 16.4217 16.2815C18.0984 15.8292 20 16.0629 20 17.5Z" fill="white"/>
<path d="M9.00001 19C9.00001 19.958 8.18307 21.5253 6.91643 21.9776C5.23969 22.4298 3.2275 21.8843 2.92798 20.759C2.62846 19.6338 3.74492 18.355 5.42166 17.9028C7.0984 17.4505 9.00001 17.5629 9.00001 19Z" fill="white"/>
<path d="M8 19V10M8 10L19 7.5M8 10V8.19291C8 6.66171 8 5.89611 8.43691 5.34876C8.87383 4.8014 9.62039 4.63173 11.1135 4.29238L14.1243 3.60811C16.3685 3.09806 17.4906 2.84304 18.2415 3.43752C18.2456 3.4408 18.2498 3.44411 18.2539 3.44743C19 4.04786 19 5.19857 19 7.5V7.5M19 7.5V17.5" stroke="white" stroke-width="2" stroke-linecap="round"/>
</svg>

<svg width="24" height="24" fill="none" xmlns="http://www.w3.org/2000/svg"><path d="M20 17.5c0 .958-.817 2.404-2.494 2.856-1.676.452-3.279-.093-3.578-1.218-.3-1.126.817-2.404 2.494-2.857C18.098 15.83 20 16.064 20 17.5zM9 19c0 .958-.817 2.525-2.084 2.978-1.676.452-3.689-.094-3.988-1.219-.3-1.125.817-2.404 2.494-2.856C7.098 17.45 9 17.563 9 19z" fill="#fff"/><path d="M8 19v-9m0 0l11-2.5M8 10V8.193c0-1.531 0-2.297.437-2.844.437-.548 1.183-.717 2.677-1.057l3.01-.684c2.245-.51 3.367-.765 4.117-.17l.013.01C19 4.047 19 5.197 19 7.5m0 0v10" stroke="#fff" stroke-width="2" stroke-linecap="round"/></svg>
